X:1
T:Title
%%score { ( 1 3 ) | 2 }
L:1/8
M:4/4
K:G
V:1 treble nm="Grand Piano"
V:3 treble 
V:2 treble 
V:1
 z4 z2[Q:1/4=100] Bc | d e2 d B2 GB | [EA][EG][DF][CE] [B,D]4 | G G2 G GGFG | %4
 [GB]2 [GA]2 [FA]2 [GB][Ac] | d e2 d B2 GB | [EA][EG][DF][CE] [B,D]4 | [CE] [EG]2 [Ge] dBAG | %8
[M:3/4] [DGB]2 [CFA]2 [B,G]2 |[M:1/4] dd |[M:4/4] e d2 B [B,DG]2 [A,CF][G,DG] | %11
 [EA] [EG]2 [CE] [B,D]4 | G G2 G GGFG | z2 B2 A2 z2 | e d2 B G2 FG | [FA] [EG]2 E D4 | %16
 E [EG]2 [Fe] [Gd][DB][^CGA][CG] |[M:3/4] [DGB]2 [CFA]2 [B,G]2 |] %18
V:2
 z4 z2 [G,D][G,A,D] | [G,B,G] [G,CG]2 [G,B,G] [G,DG]2 [G,B,D][G,B,=F] | %2
 [C,C][C,C][C,G,][C,G,] [G,,G,]4 | [G,B,D] [G,B,D]2 [G,B,D] [CE][B,D][K:bass][A,CD][G,B,D] | %4
 [E,^C]2 [A,C]2 [D,D]2[K:treble] [G,D][G,=C] | [G,B,G] [G,CG]2 [G,B,G] [G,DG]2 [G,B,D][G,B,=F] | %6
 [C,C][C,C][C,G,][C,G,] [G,,G,]4 | %7
 [C,G,] [C,G,]2 [C,C][K:treble] [G,B,G][G,B,D][K:bass][F,CD][E,^CE] |[M:3/4] D,2 D,2 G,,2 | %9
[M:1/4][K:treble] [G,B,G][G,B,G] |[M:4/4] [G,CG] [G,B,G]2 [G,D][K:bass] G,,2 A,,B,, | %11
 [C,G,] [C,G,]2 [C,G,] [G,,G,]4 | [G,B,D] [G,B,D]2 [G,B,D] [G,CE][G,B,D][CD][B,D] | %13
 [A,DF]2 .[G,DG]2 [DF]2 [B,DF][A,CF] | [G,CG] [G,B,G]2[K:bass] [G,D] [E,B,E]2 [E,A,^D][E,B,E] | %15
 [C,C] [C,C]2 [E,G,C] [G,B,]4 | [C,G,C] [C,G,]2 [C,A,] [B,,B,][B,,B,]E,E, |[M:3/4] D,2 D,2 G,,2 |] %18
V:3
 x8 | x8 | x8 | x8 | x8 | x8 | x8 | x8 |[M:3/4] x6 |[M:1/4] x2 |[M:4/4] x8 | x8 | x8 | %13
 c2 z B, z Cdd | x8 | x8 | x8 |[M:3/4] x6 |] %18

